X: 1
T: Cahir's Kitchen
R: reel
M: 4/4
L: 1/8
K: Emin
E2GB E2GB|A2FA DEFD|E2GB E2GA|B (3cBA B AGF|
E2GB E2GB|A2FA dAFD|EGFA GBAd|BAFG E4||
B2BG EGB2|A2FA DEFD|B2BG EGB2|BGcA dBcA|
B2BG EGB2|A2FA dAFD|(3EFG GA GBAc|BAFG E3f||
eBgf e2fd|dAfe d2fg|eBgf eBBA|BAGF GEEf|
eBgf eBfe|dA (3AAA FAd2|(3EFG FA GBAC|BAFG E3f||
eBgf eBfe|dAfe fAfg|eBgf eBBA|BAGF GEE2|
g2gf eBfe|dA (3AAA FAd2|(3EFG FA GBAc|BAFG E4|]


Tune 1090	Setting 14329

